X: 554
T: Kumlapolskan
O: Närke
R: Polska
Z: Håkan Lidén, 2008-09-28
M: 3/4
L: 1/8
K: G
D | G>A B2 G>B | BA A3 B | c2 cB AG | FE/F/ GD B,D | G>A B2 G>B | 
BA A3 B | c2 cB AG | FE/F/ G3 :: B | d2 dc cB | BA A3 f | g2 gf ed |
^cB/c/ d3 B | d2 dc cB | BA A3 B | c2 cB AG | FE/F/ G3 :|]
(:musicend:)

(:music:)
